24x24/apps/rise-to-ruins.svg

<svg xmlns="http://www.w3.org/2000/svg" width="24" height="24" version="1">
 <path style="opacity:0.2" d="m 11,2.5019531 c -1.5914064,0.03 -2.9285454,0.010818 -4.5175781,0.095703 L 5.046875,4.2050781 5,20.5 5.00586,20.498 5,22.5 8.9199219,21.251953 C 9.0779093,20.647083 9.0720794,19.444539 9.0273438,18.388672 9.061305,17.819209 9.054095,17.142383 9.0292969,16.5 h 2.3339841 l 3.369141,4.197266 4.597656,-0.908204 v -2 L 16.248047,13.714844 C 17.043272,12.798829 17.863573,11.7955 17.839844,10.662109 18.021426,9.4078775 18.129755,8.3967243 17.984375,7.5703125 18.258573,5.1265829 17.937197,3.7492173 14.837891,3.0097656 13.582075,2.7072719 12.295968,2.4818719 11,2.5019531 Z m 2.267578,6 c 0.238656,0.2062313 0.397392,0.4587664 0.521484,0.7246094 -0.298286,0.6839082 -0.877715,1.2507995 -1.716796,1.4042965 -0.722961,0.167975 -2.077042,0.67108 -2.7500004,0.117188 0,0 -0.1283685,-0.7633116 -0.2167968,-1.6113282 C 9.1675676,8.842289 9.2635482,8.6150334 9.4414062,8.5703125 9.6962006,8.4824085 13.001701,8.5028162 13.267578,8.5019531 Z"/>
 <path style="fill:#54545a" d="m 10.999435,4.0012071 c -1.5914064,0.03 -2.9285773,0.010817 -4.51761,0.095702 L 5.0478514,5.7052869 5,22 8.9198673,20.750992 C 9.2289742,19.567547 8.906,15.999837 8.906,15.999837 h 2.457687 l 3.369097,4.196475 4.596621,-0.907215 V 17.28926 l -3.878857,-3.12998 c 0.904473,-1.161864 2.421864,-2.461773 2.389721,-3.997019 C 18.294524,7.0246132 18.37234,5.3531739 14.838253,4.5099897 13.582437,4.207496 12.295403,3.9811259 10.999435,4.0012071 Z m 2.268525,4.0010984 c 1.40807,1.2167634 0.758256,3.7705045 -1.195297,4.1278775 -0.722961,0.167975 -2.0764848,0.671078 -2.7494432,0.117186 0,0 -0.7454805,-3.9602797 0.1191399,-4.1776814 0.2547943,-0.087904 3.5597233,-0.066519 3.8256003,-0.067382 z"/>
 <path style="fill:#9696a0" d="m 10.999435,2.0013701 c -1.5914064,0.03 -2.9285773,0.010817 -4.51761,0.095702 L 5.0478514,3.7054499 5,20.000163 8.9198673,18.751155 C 9.2289742,17.56771 8.906,14 8.906,14 h 2.457687 l 3.369097,4.196475 4.596621,-0.907215 -3.878857,-5.129817 C 16.355021,10.997579 17.872412,9.6976699 17.840269,8.162424 18.294524,5.0247762 18.37234,3.3533369 14.838253,2.5101527 13.582437,2.207659 12.295403,1.9812889 10.999435,2.0013701 Z m 2.268525,4.0010984 c 1.40807,1.2167634 0.758256,3.7705047 -1.195297,4.1278775 -0.722961,0.167975 -2.0764848,0.671078 -2.7494432,0.117186 0,0 -0.7454805,-3.9602797 0.1191399,-4.1776814 0.2547943,-0.087904 3.5597233,-0.066519 3.8256003,-0.067382 z"/>
 <path style="opacity:0.15" d="M 9.1621094 2.0234375 C 9.0402724 2.0247105 8.9085686 2.0277554 8.7871094 2.0292969 C 8.7948581 2.0772924 8.7980725 2.1279481 8.7949219 2.1835938 C 8.4619677 2.3871157 7.9899458 2.3831162 7.6230469 2.28125 C 7.6025099 2.2011598 7.6030118 2.1312394 7.6074219 2.0644531 C 7.4399676 2.0692186 7.2728844 2.0714907 7.1015625 2.078125 C 6.9084707 2.4273036 6.6187438 2.8098392 6.515625 3.0117188 C 6.6430614 3.9622561 6.5326721 4.9259785 6.421875 5.8769531 C 6.3260067 6.2796959 5.8702702 5.5062434 5.6953125 6.0800781 C 5.5602677 6.5684178 5.244711 6.2362118 5.0410156 5.9453125 L 5.0390625 6.5722656 L 5.0371094 6.9707031 C 5.5152973 6.9806031 6.09056 7.1853057 6.4726562 6.8183594 C 7.4508501 6.3647492 6.5469 7.5166353 6.0449219 7.4550781 C 6.0365119 7.8759852 6.5522952 8.3974096 6.4980469 8.9863281 C 6.9357718 9.3627473 6.0450592 10.258411 6.7460938 10.207031 C 7.4988927 10.997056 8.0190347 10.023796 8.15625 9.2792969 C 8.3508335 9.3249559 8.6096002 9.3510153 8.8652344 9.4023438 C 8.7758615 8.8762424 8.5895892 7.6181699 8.6425781 6.6269531 C 8.3523292 6.3415487 8.7083826 4.703975 8.2167969 5.3378906 C 8.1868823 6.2744026 7.0971396 5.9913262 7.1484375 5.1816406 C 6.8470728 4.3871435 7.6447702 3.7476348 7.6191406 2.9394531 C 8.0764732 2.5613109 9.117949 2.731204 9.6699219 2.6933594 L 9.1621094 2.0234375 z M 7.1816406 2.6132812 C 7.2271146 2.6068513 7.2755869 2.6174986 7.3222656 2.6503906 C 7.3114656 2.7655612 7.2321064 2.8582535 7.1621094 2.9433594 C 6.6255563 3.5080159 6.8633271 2.6582601 7.1816406 2.6132812 z M 16.941406 3.7441406 L 16.941406 4.0097656 C 17.058162 4.1174648 17.150705 4.3568078 17.121094 4.5683594 C 17.196624 5.1451603 17.081248 5.2026773 16.941406 5.0644531 L 16.941406 6.1835938 C 17.103645 6.2183278 17.231122 6.3561246 17.234375 6.640625 C 17.257005 8.0159319 16.73848 9.0274056 15.859375 9.9433594 C 15.489615 10.277379 15.133811 10.665027 14.685547 10.892578 C 14.684097 10.246876 15.282137 9.6803904 15.472656 9.0527344 C 15.859619 8.3328647 15.039048 8.6350114 14.708984 8.4296875 C 14.733 7.7313541 14.25845 8.1441763 13.947266 8.2734375 C 13.897372 8.492094 13.82203 8.7031169 13.716797 8.9023438 C 13.810491 8.8153643 13.906106 8.8253959 14.009766 9.0898438 C 14.835319 9.7435433 13.883185 10.121564 13.621094 10.777344 C 13.320536 11.639296 12.454044 12.089741 11.570312 11.980469 C 10.725178 12.091661 9.2081543 11.609376 8.5820312 12.365234 C 8.1964333 13.01753 7.4750934 12.748818 6.9160156 12.529297 C 6.1328766 12.103397 5.7203149 11.529703 5.1914062 10.837891 C 5.049288 9.8832796 5.046934 8.9170731 5.0351562 7.9511719 L 5.0234375 12.087891 C 5.0714015 12.84667 5.1161962 13.606665 5.1621094 14.365234 C 5.2083834 15.279798 5.3025812 14.342902 5.3007812 13.960938 C 5.4097954 13.410187 5.023961 11.79661 6 12.517578 C 6.6848052 12.930864 6.8573481 13.538736 7.6816406 13.662109 L 8.9179688 14.210938 C 8.9181546 14.201195 8.9178256 14.191386 8.9179688 14.181641 C 8.9166399 14.166484 8.90625 14 8.90625 14 L 8.9179688 14 C 8.916562 13.6669 8.904584 13.332267 8.953125 13.001953 C 9.0875113 12.007552 10.826957 12.17715 11.492188 12.513672 C 12.087395 13.437685 12.993668 14.132998 13.447266 15.152344 C 13.895032 15.788592 14.161807 16.701443 14.824219 17.099609 C 15.75676 17.075839 16.695412 16.836272 17.039062 15.902344 C 17.585681 15.019212 17.96291 15.745504 18.449219 16.126953 L 16.693359 13.804688 C 16.792169 13.955485 16.891168 14.105075 16.980469 14.261719 C 16.857725 14.812407 16.842283 15.573479 16.369141 16.041016 C 15.923357 16.379401 15.324406 16.678152 14.751953 16.611328 C 14.458913 15.886979 13.867834 15.290667 13.609375 14.542969 C 13.915987 13.617571 15.082071 14.841203 15.777344 14.738281 C 16.110582 14.359008 14.975817 13.90182 14.675781 13.644531 C 14.296045 13.006613 12.757403 13.930734 13.089844 13.033203 C 13.504375 12.270809 14.547003 11.861331 15.376953 11.951172 C 15.413653 12.005702 15.454629 12.057287 15.492188 12.111328 C 15.49357 12.109609 15.494705 12.107189 15.496094 12.105469 C 15.577203 12.002936 15.675057 11.893819 15.763672 11.789062 C 15.7457 11.766401 15.727403 11.738672 15.708984 11.726562 C 15.620664 11.498071 15.158063 11.243161 15.333984 11.033203 C 16.440952 9.9644116 16.947626 8.8631544 17.673828 7.4902344 C 17.736928 7.9873181 17.737346 8.4909723 17.660156 8.984375 C 17.71921 8.8511455 17.766223 8.7171206 17.796875 8.5800781 C 17.827527 8.4430357 17.842793 8.3029631 17.839844 8.1621094 C 17.911674 7.6659733 17.95577 7.2104957 17.970703 6.7851562 C 17.957948 6.4637064 17.947305 6.1429395 17.9375 5.8222656 C 17.840186 4.9727134 17.54073 4.2892008 16.941406 3.7441406 z M 6.8320312 5.4472656 C 6.8501962 5.4362606 6.8787427 5.4351819 6.9179688 5.4511719 C 7.0311908 6.1310817 6.7048721 5.5243216 6.8320312 5.4472656 z M 7.4882812 6.8535156 C 8.4594884 6.9353086 7.8607843 8.3845462 7.7773438 9.0507812 L 7.7265625 9.2265625 L 7.6757812 9.390625 C 7.5464281 10.480746 6.6725061 9.6183216 6.5957031 8.9941406 C 6.2643503 8.219053 6.4356077 6.8835252 7.4882812 6.8535156 z M 13.996094 7.4902344 C 13.995632 7.4941697 13.994596 7.4980177 13.994141 7.5019531 C 13.998241 7.5504432 14.010504 7.5977803 14.011719 7.6464844 C 14.037981 7.5943539 14.064914 7.5427767 14.091797 7.4902344 L 13.996094 7.4902344 z M 13.509766 9.2109375 C 13.209422 9.6173955 12.793091 9.9409687 12.251953 10.083984 C 11.969926 10.369183 11.69506 10.673151 11.34375 10.867188 C 11.25361 10.723773 11.115458 10.551324 10.994141 10.390625 C 10.843755 10.422461 10.697908 10.454764 10.546875 10.472656 C 10.93331 10.736893 11.214685 11.152499 11.527344 11.501953 C 12.2061 10.767753 12.928487 10.065125 13.494141 9.2363281 C 13.499027 9.2272065 13.50488 9.2200542 13.509766 9.2109375 z M 18.992188 16.84375 C 19.013897 17.010304 19.026193 17.178271 19.033203 17.347656 L 19.328125 17.289062 L 18.992188 16.84375 z"/>
 <path style="opacity:0.2;fill:#f4f4f7" d="M 11 2.0019531 C 9.4085936 2.0319531 8.0714546 2.0127713 6.4824219 2.0976562 L 5.046875 3.7050781 L 5 20 L 5.0019531 20 L 5.046875 4.2050781 L 6.4824219 2.5976562 C 8.0714546 2.5127713 9.4085936 2.5319531 11 2.5019531 C 12.295968 2.4818719 13.582075 2.7072719 14.837891 3.0097656 C 17.333026 3.6050704 18.015875 4.6257255 18.048828 6.2714844 C 18.144492 4.3213989 17.580334 3.1640748 14.837891 2.5097656 C 13.582075 2.2072719 12.295968 1.9818719 11 2.0019531 z M 18.005859 7.296875 C 17.997037 7.3898881 17.99518 7.4740138 17.984375 7.5703125 C 18.016285 7.7517066 18.031644 7.9466723 18.041016 8.1464844 C 18.049193 7.8444861 18.037547 7.5612082 18.005859 7.296875 z M 13.646484 8.9765625 C 13.323841 9.5418967 12.803326 9.9971232 12.072266 10.130859 C 11.349305 10.298834 9.995224 10.801939 9.3222656 10.248047 C 9.3222656 10.248047 9.2305602 9.5981643 9.1542969 8.9921875 C 9.1395299 9.0429643 9.1173959 9.0801686 9.1054688 9.1367188 C 9.1938971 9.984735 9.3222656 10.748047 9.3222656 10.748047 C 9.995224 11.301939 11.349305 10.798834 12.072266 10.630859 C 12.911347 10.477362 13.490777 9.910471 13.789062 9.2265625 C 13.748717 9.140131 13.695709 9.0590466 13.646484 8.9765625 z M 16.447266 13.476562 C 16.380062 13.555447 16.315419 13.637239 16.248047 13.714844 L 19.330078 17.789062 L 19.330078 17.289062 L 16.447266 13.476562 z M 9.0292969 16.5 C 9.038285 16.732832 9.0416778 16.969949 9.0449219 17.205078 C 9.0473331 16.972145 9.0462666 16.740655 9.0410156 16.5 L 9.0292969 16.5 z M 9.03125 18.216797 C 9.0287693 18.271991 9.0305296 18.335251 9.0273438 18.388672 C 9.0440922 18.783976 9.0436818 19.190529 9.0429688 19.587891 C 9.0570332 19.155792 9.0465698 18.682649 9.03125 18.216797 z M 5.0039062 20.498047 L 5 22 L 5.0019531 22 L 5.0058594 20.498047 L 5.0039062 20.498047 z"/>
</svg>

<svg xmlns="http://www.w3.org/2000/svg" width="24" height="24" version="1"><path style="opacity:.2" d="M11 2.502c-1.591.03-2.929.01-4.518.096L5.047 4.205 5 20.5l.006-.002L5 22.5l3.92-1.248c.158-.605.152-1.807.107-2.863.034-.57.027-1.247.002-1.889h2.334l3.37 4.197 4.597-.908v-2l-3.082-4.074c.795-.916 1.616-1.92 1.592-3.053.181-1.254.29-2.265.144-3.092.275-2.443-.047-3.82-3.146-4.56-1.256-.303-2.542-.528-3.838-.508zm2.268 6c.238.206.397.459.521.725-.298.683-.878 1.25-1.717 1.404-.723.168-2.077.67-2.75.117 0 0-.128-.763-.217-1.611.063-.295.159-.522.336-.567.255-.088 3.56-.067 3.827-.068z"/><path style="fill:#54545a" d="M11 4.001c-1.592.03-2.93.011-4.518.096L5.048 5.705 5 22l3.92-1.249C9.229 19.568 8.906 16 8.906 16h2.458l3.369 4.196 4.596-.907v-2l-3.878-3.13c.904-1.162 2.421-2.461 2.39-3.997.454-3.137.531-4.809-3.003-5.652-1.256-.303-2.543-.529-3.839-.509zm2.268 4.001c1.408 1.217.758 3.77-1.195 4.128-.723.168-2.077.671-2.75.117 0 0-.745-3.96.12-4.177.254-.088 3.56-.067 3.825-.068z"/><path style="fill:#9696a0" d="M11 2.001c-1.592.03-2.93.011-4.518.096L5.048 3.705 5 20l3.92-1.249C9.229 17.568 8.906 14 8.906 14h2.458l3.369 4.196 4.596-.907-3.878-5.13c.904-1.161 2.421-2.461 2.39-3.997.454-3.137.531-4.809-3.003-5.652-1.256-.302-2.543-.529-3.839-.509zm2.268 4.001c1.408 1.217.758 3.771-1.195 4.128-.723.168-2.077.671-2.75.118 0 0-.745-3.96.12-4.178.254-.088 3.56-.067 3.825-.068z"/><path style="opacity:.15" d="m9.162 2.023-.375.006a.707.707 0 0 1 .008.155c-.333.203-.805.2-1.172.097a.66.66 0 0 1-.016-.217c-.167.005-.334.007-.505.014-.194.35-.483.732-.586.934.127.95.017 1.914-.094 2.865-.096.403-.552-.37-.727.203-.135.488-.45.156-.654-.135l-.002.627-.002.399c.478.01 1.054.214 1.436-.153.978-.453.074.699-.428.637-.008.421.507.942.453 1.531.438.377-.453 1.272.248 1.221.753.79 1.273-.183 1.41-.928.195.046.454.072.71.123-.09-.526-.276-1.784-.223-2.775-.29-.285.065-1.923-.426-1.29-.03.937-1.12.654-1.069-.155-.3-.795.497-1.434.471-2.243.457-.378 1.499-.208 2.05-.246l-.507-.67zm-1.98.59a.193.193 0 0 1 .14.037c-.01.116-.09.208-.16.293-.536.565-.299-.285.02-.33zm9.76 1.131v.266c.116.107.209.347.18.558.075.577-.04.635-.18.496v1.12c.162.034.29.172.292.457.023 1.375-.496 2.386-1.375 3.302-.37.334-.725.722-1.173.95-.002-.646.596-1.213.787-1.84.387-.72-.434-.418-.764-.623.024-.699-.45-.286-.762-.157-.05.22-.125.43-.23.63.093-.088.19-.078.293.187.825.654-.127 1.032-.389 1.687-.3.862-1.167 1.313-2.05 1.203-.846.112-2.363-.37-2.989.385-.386.653-1.107.384-1.666.164-.783-.426-1.196-1-1.725-1.691-.142-.955-.144-1.92-.156-2.887l-.012 4.137c.048.759.093 1.519.14 2.277.045.915.14-.022.138-.404.109-.55-.277-2.164.699-1.443.685.413.857 1.02 1.682 1.144l1.236.549v-.03L8.906 14h.012c-.001-.333-.013-.668.035-.998.135-.994 1.874-.825 2.54-.488.594.924 1.5 1.619 1.954 2.638.448.637.715 1.55 1.377 1.948.933-.024 1.871-.264 2.215-1.198.547-.883.924-.156 1.41.225l-1.756-2.322c.1.15.198.3.287.457-.122.55-.138 1.311-.61 1.779-.447.338-1.046.637-1.618.57-.293-.724-.884-1.32-1.143-2.068.307-.925 1.473.298 2.168.195.334-.379-.801-.836-1.101-1.093-.38-.638-1.919.286-1.586-.612.414-.762 1.457-1.172 2.287-1.082.037.055.078.106.115.16.002-.001.003-.004.004-.006.081-.102.18-.211.268-.316-.018-.023-.037-.05-.055-.062-.088-.229-.55-.484-.375-.694 1.107-1.069 1.614-2.17 2.34-3.543.063.497.063 1.001-.014 1.494.06-.133.106-.267.137-.404.03-.137.046-.277.043-.418.072-.496.116-.952.13-1.377-.012-.321-.023-.642-.032-.963-.098-.85-.397-1.533-.997-2.078zM6.831 5.447c.018-.01.047-.012.086.004.113.68-.213.073-.086-.004zm.656 1.407c.971.081.373 1.53.29 2.197l-.051.176-.051.164c-.13 1.09-1.003.227-1.08-.397-.332-.775-.16-2.11.892-2.14zm6.508.636-.002.012c.004.048.017.096.018.144l.08-.156h-.096zm-.486 1.72c-.3.407-.717.731-1.258.874-.282.285-.557.59-.908.783-.09-.143-.229-.316-.35-.476-.15.031-.296.064-.447.082.386.264.668.68.98 1.029.68-.734 1.401-1.437 1.967-2.266l.016-.025zm5.482 7.634c.022.166.034.334.041.504l.295-.059-.336-.445z"/><path style="opacity:.2;fill:#f4f4f7" d="M11 2.002c-1.591.03-2.929.01-4.518.096L5.047 3.705 5 20h.002l.045-15.795 1.435-1.607c1.59-.085 2.927-.066 4.518-.096 1.296-.02 2.582.205 3.838.508 2.495.595 3.178 1.616 3.21 3.261.096-1.95-.468-3.107-3.21-3.761-1.256-.303-2.542-.528-3.838-.508zm7.006 5.295c-.009.093-.01.177-.022.273.032.182.048.377.057.576a5.825 5.825 0 0 0-.035-.85zm-4.36 1.68c-.322.565-.843 1.02-1.574 1.154-.723.168-2.077.67-2.75.117 0 0-.091-.65-.168-1.256-.014.051-.037.088-.049.145.089.848.217 1.611.217 1.611.673.554 2.027.05 2.75-.117.84-.154 1.419-.72 1.717-1.404-.04-.087-.093-.168-.143-.25zm2.801 4.5c-.067.078-.132.16-.199.238l3.082 4.074v-.5l-2.883-3.812zM9.03 16.5c.01.233.013.47.016.705a21.75 21.75 0 0 0-.004-.705h-.012zm.002 1.717c-.002.055 0 .118-.004.172.017.395.017.802.016 1.199.014-.432.004-.905-.012-1.371zm-4.027 2.281L5 22h.002l.004-1.502h-.002z"/></svg>
